X:10280
T:March,A. BF11.60
M:4/4
Q:160
C:Browne A hand
S:MS11,c1800.,Browne Coll.,Lakes
R:March
O:England
A:Lakes
Z:vmp.Chris Partington
K:D
A/B/c/|d2D2F2A2|d2ddd3f|e2Agf2Ag|fagf eABc|!
d2D2F2A2|d2ddd3f|e2a2^gbag|a2AAA2||!
(A/B/c/d/)|e2eee2de|f2fff2dc|B2cd edcB|^A2FFF2A2|!
BFdB cAec|dFfd eFge|(3gab (3gfe d2c2|B2BBB2(A/B/c)|!
d2DDD2(d/e/f)|e2EEE2(e/f/g)|fdec dBed|c2AAA2GF|!
GBed cBAG|FAdc BAGF|(3Edc (3BAG F2E2|D2DDD2|]
